public/assets/img/casestudies/recupera/brand2Md.svg

<svg fill="none" height="668" viewBox="0 0 513 668" width="513" xmlns="http://www.w3.org/2000/svg" xmlns:xlink="http://www.w3.org/1999/xlink"><clipPath id="a"><path d="m0 0h513v668h-513z"/></clipPath><g clip-path="url(#a)"><path d="m433.538 17.0993c9.238-9.44369 24.217-9.44369 33.455 0 9.239 9.4437 9.239 24.7549 0 34.1985l-144.457 147.6672c-9.238 9.443-24.216 9.443-33.455 0-9.238-9.444-9.238-24.755 0-34.199z" fill="#7368f8"/><path d="m958.697-169.95c11.373-11.626 29.812-11.626 41.185 0 11.368 11.626 11.368 30.475-.001 42.1l-626.752 640.681c-11.373 11.626-29.812 11.626-41.185 0s-11.373-30.475 0-42.1z" fill="#fad166"/><path d="m620.82-53.5867c23.455-23.9765 61.483-23.9765 84.939 0 23.455 23.9766 23.455 62.85017 0 86.8267l-474.536 485.081c-23.455 23.976-61.484 23.976-84.939 0-23.456-23.977-23.456-62.85 0-86.827z" fill="#29a42e"/><path d="m42.4694 537.618c23.4545-23.976 61.4836-23.974 84.9376.001 23.455 23.976 23.456 62.85.001 86.826-23.454 23.975-61.4827 23.974-84.9372-.002s-23.4559-62.849-.0014-86.825z" fill="#7368f8"/></g></svg>

<svg width="513" height="668" viewBox="0 0 513 668" fill="none" xmlns="http://www.w3.org/2000/svg">
<g clip-path="url(#clip0_2241_167292)">
<path d="M433.538 17.0993C442.776 7.65561 457.755 7.65561 466.993 17.0993C476.232 26.543 476.232 41.8542 466.993 51.2978L322.536 198.965C313.298 208.408 298.32 208.408 289.081 198.965C279.843 189.521 279.843 174.21 289.081 164.766L433.538 17.0993Z" fill="#7368F8"/>
<path d="M958.697 -169.95C970.07 -181.576 988.509 -181.576 999.882 -169.95C1011.25 -158.324 1011.25 -139.475 999.881 -127.85L373.129 512.831C361.756 524.457 343.317 524.457 331.944 512.831C320.571 501.205 320.571 482.356 331.944 470.731L958.697 -169.95Z" fill="#FAD166"/>
<path d="M620.82 -53.5867C644.275 -77.5632 682.303 -77.5632 705.759 -53.5867C729.214 -29.6101 729.214 9.26347 705.759 33.24L231.223 518.321C207.768 542.297 169.739 542.297 146.284 518.321C122.828 494.344 122.828 455.471 146.284 431.494L620.82 -53.5867Z" fill="#29A42E"/>
<path d="M42.4694 537.618C65.9239 513.642 103.953 513.644 127.407 537.619C150.862 561.595 150.863 600.469 127.408 624.445C103.954 648.42 65.9253 648.419 42.4708 624.443C19.0163 600.467 19.0149 561.594 42.4694 537.618Z" fill="#7368F8"/>
</g>
<defs>
<clipPath id="clip0_2241_167292">
<rect width="513" height="668" fill="white"/>
</clipPath>
</defs>
</svg>
